X: 1
T: Captain Campbell's Strathspey
R: strathspey
Z: 1997 by John Chambers <jc:trillian.mit.edu>
B: Athole Collection
B: Kerr's Merrie Melodies V.1 p.9
B: Mel Bay 108
B: Little p.34
B: Hunter 70
B: Lerwick p.29
B: BSFC IX-15
D: Alasdair Fraser on The Driven Bow, cut 2B
M: C
L: 1/8
K: Am
G |"Am"E<A A>B c>A B<G | "G"D<G G>A B>d c/B/A/G/ |\
   "Am"E<A A>B c>B c<e | "G"d<B g>B "Am"A2- A :: B |\
   "Am"A<a a>g e>d c<e |
    "G"d>e g>e d/c/B/A/ G<B |\
[1 "Am"A<a a>g e>d c<e | "G"d<B g>B "Am"A2- A :|\
[2 "Am"c<A "G"d>B "C"e>d c<e | "G"d<B g>B "Am"A2- A |]
